swiss/communes/0298.svg

<?xml version="1.0" encoding="UTF-8" standalone="no"?>
<!-- Created with Inkscape (http://www.inkscape.org/) -->
<svg
   xmlns:svg="http://www.w3.org/2000/svg"
   xmlns="http://www.w3.org/2000/svg"
   version="1.0"
   width="244.9489"
   height="286.9194"
   id="svg2780">
  <defs
     id="defs2782" />
  <g
     transform="translate(0,-790.07284)"
     id="layer1">
    <path
       d="M 0.99999994,791.07284 L 5.4172481,976.6018 C 8.572417,1109.1224 236.37647,1109.1224 239.53165,976.6018 L 243.9489,791.07284 L 0.99999994,791.07284 z"
       id="path3282"
       style="fill:#ffffff;fill-opacity:1;fill-rule:evenodd;stroke:#000000;stroke-width:1.99999988;stroke-linecap:butt;stroke-miterlimit:4;stroke-dashoffset:0;stroke-opacity:1" />
    <path
       d="M 29.835275,1027.4249 C 56.85841,1015.2223 85.516297,1010.5647 121.10567,1037.8985 C 147.51267,1018.3018 176.93529,1010.5521 212.62544,1027.4249 C 139.89722,935.18279 153.93031,836.8404 198.68697,850.02988 C 220.78634,856.54241 203.61858,899.88439 178.21201,869.32264 C 174.04673,874.36959 173.55645,879.84151 177.18426,885.63516 C 180.94117,891.63498 186.32799,889.25673 189.36074,891.04832 C 192.39349,892.83991 192.49546,896.89666 200.55745,897.00301 C 208.79574,897.11168 209.41779,890.32687 212.87481,888.77371 C 216.2628,887.25156 218.3461,891.10998 223.7867,885.63516 C 229.31477,880.07233 227.00578,873.58986 227.72135,871.00774 C 228.39164,868.58895 231.94763,868.46106 232.47195,861.69538 C 232.9954,854.94101 227.53309,852.87759 226.59031,850.12095 C 225.70133,847.52161 229.38692,842.4147 226.59031,837.90168 C 223.84149,833.46579 217.01984,832.29968 214.62042,830.4205 C 212.32869,828.62568 212.19715,824.35283 204.88235,822.04722 C 197.51525,819.72512 194.29443,823.26346 191.17939,823.1887 C 188.24058,823.11816 183.28389,818.3291 176.21196,819.62444 C 169.31056,820.88855 167.09409,828.29215 164.24714,830.06784 C 161.27219,831.92336 153.43939,829.90716 148.78603,835.40796 C 144.21902,840.80667 146.57129,846.03935 144.9724,848.98991 C 143.4118,851.86982 138.74724,851.73344 134.34014,858.37531 C 129.98618,864.93708 134.69853,873.3048 133.5743,878.30006 C 132.45007,883.29532 127.58587,885.26716 126.65237,892.91336 C 125.71603,900.58275 129.68334,905.78527 129.55408,909.75127 C 129.41908,913.89342 123.71088,918.74794 124.0251,929.05177 C 124.33943,939.35946 133.73117,944.1233 132.75314,950.41674 C 131.77059,956.73928 125.05177,963.44033 128.17887,973.47783 C 131.25593,983.35473 131.10433,995.06263 119.35936,992.33643 C 107.44701,989.57133 116.52119,971.64083 121.58669,961.31393 C 126.68665,950.91687 117.37024,935.11815 117.08545,928.34644 C 116.80066,921.57473 121.44873,913.37929 120.82604,907.30033 C 120.20335,901.22136 115.17397,894.79233 114.44565,888.85928 C 113.71733,882.92623 118.28892,875.19683 116.48341,868.01527 C 114.66695,860.79011 109.50074,861.46165 107.46321,857.48029 C 105.42568,853.49893 106.14493,846.17972 102.41525,841.90418 C 98.760723,837.71479 92.646763,838.12888 89.185963,835.43821 C 85.833987,832.83214 85.530257,826.92562 80.049947,824.07036 C 74.430477,821.1426 70.697423,824.50588 66.596351,824.21644 C 62.495279,823.927 57.056449,819.29488 50.785553,821.47334 C 44.357079,823.70655 45.063406,828.11527 42.303909,829.42301 C 39.687516,830.66294 35.484295,826.35151 28.180428,831.3147 C 20.75639,836.35955 24.758851,841.29025 23.102213,843.38788 C 21.510998,845.40268 17.330125,845.20215 13.716814,851.38034 C 10.149263,857.48029 15.120386,863.00989 15.881481,866.33017 C 16.650409,869.68462 12.155787,875.74498 15.881481,881.79127 C 19.479772,887.63081 24.996079,885.34237 28.19296,887.48406 C 31.389841,889.62575 30.573289,893.36428 38.052042,895.93248 C 45.424225,898.46407 49.168811,892.87361 52.528188,891.51681 C 55.735403,890.22146 60.497085,893.05418 65.422527,887.21697 C 70.273867,881.46757 67.358719,872.43273 64.747449,869.32264 C 39.557561,898.89831 25.446461,857.48029 42.741986,850.62895 C 83.523347,834.47408 116.83088,917.11359 29.835275,1027.4249 z"
       id="path5064"
       style="fill:#000000;fill-opacity:1;fill-rule:evenodd;stroke:none;stroke-width:1px;stroke-linecap:butt;stroke-linejoin:miter;stroke-opacity:1" />
  </g>
</svg>

<svg xmlns="http://www.w3.org/2000/svg" version="1.0" width="244.949" height="286.919"><path d="m1 791.073 4.417 185.529c3.155 132.52 230.96 132.52 234.115 0l4.417-185.53H1z" style="fill:#fff;fill-opacity:1;fill-rule:evenodd;stroke:#000;stroke-width:1.99999988;stroke-linecap:butt;stroke-miterlimit:4;stroke-dashoffset:0;stroke-opacity:1" transform="translate(0 -790.073)"/><path d="M29.835 1027.425c27.023-12.203 55.681-16.86 91.27 10.474 26.408-19.597 55.83-27.347 91.52-10.474-72.728-92.242-58.695-190.585-13.938-177.395 22.1 6.512 4.932 49.854-20.475 19.293-4.165 5.047-4.656 10.519-1.028 16.312 3.757 6 9.144 3.622 12.177 5.413 3.032 1.792 3.134 5.849 11.196 5.955 8.239.109 8.86-6.676 12.318-8.23 3.388-1.521 5.471 2.337 10.912-3.138 5.528-5.563 3.219-12.045 3.934-14.627.67-2.42 4.227-2.547 4.75-9.313.524-6.754-4.938-8.817-5.88-11.574-.89-2.6 2.796-7.706 0-12.22-2.75-4.435-9.571-5.601-11.97-7.48-2.292-1.795-2.424-6.068-9.739-8.374-7.367-2.322-10.588 1.216-13.703 1.142-2.938-.07-7.895-4.86-14.967-3.565-6.901 1.265-9.118 8.668-11.965 10.444-2.975 1.855-10.808-.16-15.461 5.34-4.567 5.399-2.215 10.631-3.814 13.582-1.56 2.88-6.225 2.743-10.632 9.385-4.354 6.562.359 14.93-.766 19.925-1.124 4.995-5.988 6.967-6.922 14.613-.936 7.67 3.031 12.872 2.902 16.838-.135 4.142-5.843 8.997-5.529 19.3.314 10.308 9.706 15.072 8.728 21.366-.982 6.322-7.701 13.023-4.574 23.06 3.077 9.878 2.925 21.586-8.82 18.86-11.912-2.766-2.838-20.696 2.228-31.023 5.1-10.397-4.217-26.196-4.502-32.968-.284-6.771 4.364-14.967 3.741-21.046-.623-6.079-5.652-12.508-6.38-18.44-.729-5.934 3.843-13.663 2.037-20.845-1.816-7.225-6.982-6.553-9.02-10.535-2.037-3.981-1.318-11.3-5.048-15.576-3.654-4.19-9.768-3.775-13.229-6.466-3.352-2.606-3.656-8.512-9.136-11.368-5.62-2.927-9.353.436-13.454.146-4.1-.289-9.54-4.921-15.81-2.743-6.429 2.234-5.723 6.642-8.482 7.95-2.616 1.24-6.82-3.071-14.124 1.892-7.424 5.045-3.421 9.975-5.078 12.073-1.591 2.015-5.772 1.814-9.385 7.992-3.568 6.1 1.403 11.63 2.164 14.95.77 3.355-3.725 9.415 0 15.461 3.599 5.84 9.115 3.551 12.312 5.693 3.197 2.142 2.38 5.88 9.859 8.448 7.372 2.532 11.117-3.058 14.476-4.415 3.207-1.296 7.97 1.537 12.895-4.3 4.85-5.75 1.936-14.784-.676-17.894-25.19 29.575-39.3-11.843-22.005-18.694 40.781-16.155 74.089 66.485-12.907 176.796z" style="fill:#000;fill-opacity:1;fill-rule:evenodd;stroke:none;stroke-width:1px;stroke-linecap:butt;stroke-linejoin:miter;stroke-opacity:1" transform="translate(0 -790.073)"/></svg>
